build/images/common/logo.svg

<svg width="480" height="63" viewBox="0 0 480 63" fill="none" xmlns="http://www.w3.org/2000/svg">
<path d="M449.7 44.6999C449.7 56.2999 455.8 62.6999 467.4 62.6999C472.4 62.6999 476.4 61.6999 479.9 59.9999L476.4 48.9999C474.529 50.0258 472.434 50.5753 470.3 50.5999C465.9 50.5999 463.7 47.9999 463.7 43.1999V27.2999H477.4V16.0999H463.6V0.399902L449.7 4.9999V44.6999Z" fill="white"/>
<path d="M358 33.6001C358.578 31.4525 359.856 29.5589 361.63 28.2187C363.405 26.8784 365.576 26.1682 367.8 26.2001C372.3 26.2001 375.8 28.8001 377.1 33.6001H358ZM391.1 38.6001C390.9 24.6001 381.3 14.6001 367.8 14.6001C354.1 14.6001 343.8 25.0001 343.8 38.6001C343.8 51.6001 353.3 62.6001 367.7 62.6001C378.1 62.6001 387.5 56.1001 390.3 47.1001H376.8C374.8 49.9001 371.8 51.3001 367.7 51.3001C362.7 51.3001 358.8 47.9001 357.7 42.3001H391.1V38.7001V38.6001Z" fill="white"/>
<path d="M428.6 61.3H442.4V33.5C442.4 27.9 440.7 23.2 437.6 19.8C436.017 18.114 434.091 16.7866 431.952 15.9069C429.814 15.0272 427.511 14.6157 425.2 14.7C422.562 14.6663 419.946 15.1825 417.518 16.2155C415.091 17.2485 412.905 18.7758 411.1 20.7V16H397.1V61.3H411.1V40.3C411.1 32 414.5 27.5 420.6 27.5C425.4 27.5 428.6 31.1 428.6 36.5V61.3Z" fill="white"/>
<path d="M324.2 61.3H338V34C338 22.2 331.2 14.8 321.1 14.8C314.4 14.8 308.9 17.5 305.1 22.6C302.1 17.6 297 14.8 290.6 14.8C285 14.8 280.6 16.7 277.3 20.5V16H263.3V61.3H277.3V39.1C277.3 31.7 280.3 27.5 285.9 27.5C291.1 27.5 293.7 30.5 293.7 36V61.3H307.7V39.1C307.7 31.7 310.9 27.5 316.7 27.5C321.2 27.5 324.2 31.2 324.2 36.3V61.3V61.3Z" fill="white"/>
<path d="M225.6 61.2999H239.5V46.9999C239.5 34.3999 245.2 29.2999 254.3 29.2999C256.6 29.2999 258.1 29.5999 258.1 29.5999V15.7999C257.1 15.4999 256.2 15.3999 254.9 15.3999C248.2 15.3999 243.2 18.6999 239.5 25.0999V16.0999H225.5V61.2999H225.6Z" fill="white"/>
<path d="M186.4 33.6001C186.978 31.4525 188.255 29.5589 190.03 28.2187C191.805 26.8784 193.976 26.1682 196.2 26.2001C200.8 26.2001 204.3 28.8001 205.5 33.6001H186.4V33.6001ZM219.6 38.6001C219.3 24.6001 209.6 14.6001 196.2 14.6001C182.5 14.6001 172.2 25.0001 172.2 38.6001C172.2 51.6001 181.7 62.6001 196.2 62.6001C206.5 62.6001 216 56.1001 218.7 47.1001H205.2C203.2 49.9001 200.2 51.3001 196.2 51.3001C191.2 51.3001 187.2 47.9001 186.2 42.3001H219.6V38.7001V38.6001Z" fill="white"/>
<path d="M121.3 27.2999H140.7V44.6999C140.7 56.2999 146.7 62.6999 158.4 62.6999C163.4 62.6999 167.4 61.6999 170.9 59.9999L167.3 48.9999C165.459 50.0101 163.4 50.5591 161.3 50.5999C156.8 50.5999 154.6 47.9999 154.6 43.1999V27.2999H168.3V16.0999H154.6V0.399902L140.7 4.9999V15.9999H121.3V0.599902L107.4 4.9999V44.6999C107.4 56.2999 113.4 62.6999 125.1 62.6999C130.1 62.6999 134.1 61.6999 137.6 59.9999L134 48.9999C132.159 50.0101 130.1 50.5591 128 50.5999C123.5 50.5999 121.3 47.9999 121.3 43.1999V27.2999Z" fill="white"/>
<path d="M68.5 33.6001C69.0781 31.4525 70.3555 29.5589 72.1304 28.2187C73.9053 26.8784 76.0763 26.1682 78.3001 26.2001C82.8001 26.2001 86.4 28.8001 87.6 33.6001H68.5ZM101.6 38.6001C101.4 24.6001 91.8001 14.6001 78.3001 14.6001C64.6001 14.6001 54.3 25.0001 54.3 38.6001C54.3 51.6001 63.8 62.6001 78.2 62.6001C88.6 62.6001 98.0001 56.1001 100.8 47.1001H87.3001C85.3001 49.9001 82.3 51.3001 78.2 51.3001C73.2 51.3001 69.3 47.9001 68.2 42.3001H101.6V38.7001V38.6001Z" fill="white"/>
<path d="M28.3 49.5H14V37.2999H28.3C31.6 37.2999 34.9 39.4 34.9 43.5C34.9 47 32.2 49.5 28.3 49.5V49.5ZM14 13.6H26.5C31.1 13.6 33.1 16.6 33.1 19.6C33.1 23.9 29.7 25.9 26.5 25.9H14V13.6ZM40.7 30C40.7 30 48 26.2 48 17C48 9.79995 41.7 1.69995 29.2 1.69995H0V61.4H29.2C45.2 61.4 49.6 51.3999 49.6 44.5999C49.6 33.6999 40.7 30 40.7 30V30Z" fill="white"/>
</svg>

<svg width="480" height="63" fill="none" xmlns="http://www.w3.org/2000/svg"><path d="M449.7 44.7c0 11.6 6.1 18 17.7 18 5 0 9-1 12.5-2.7l-3.5-11a13 13 0 01-6.1 1.6c-4.4 0-6.6-2.6-6.6-7.4V27.3h13.7V16.1h-13.8V.4L449.7 5v39.7zM358 33.6a10.004 10.004 0 019.8-7.4c4.5 0 8 2.6 9.3 7.4H358zm33.1 5c-.2-14-9.8-24-23.3-24-13.7 0-24 10.4-24 24 0 13 9.5 24 23.9 24 10.4 0 19.8-6.5 22.6-15.5h-13.5c-2 2.8-5 4.2-9.1 4.2-5 0-8.9-3.4-10-9h33.4v-3.7zm37.5 22.7h13.8V33.5c0-5.6-1.7-10.3-4.8-13.7a16.199 16.199 0 00-12.4-5.1 19.002 19.002 0 00-14.1 6V16h-14v45.3h14v-21c0-8.3 3.4-12.8 9.5-12.8 4.8 0 8 3.6 8 9v24.8zm-104.4 0H338V34c0-11.8-6.8-19.2-16.9-19.2-6.7 0-12.2 2.7-16 7.8-3-5-8.1-7.8-14.5-7.8-5.6 0-10 1.9-13.3 5.7V16h-14v45.3h14V39.1c0-7.4 3-11.6 8.6-11.6 5.2 0 7.8 3 7.8 8.5v25.3h14V39.1c0-7.4 3.2-11.6 9-11.6 4.5 0 7.5 3.7 7.5 8.8v25zm-98.6 0h13.9V47c0-12.6 5.7-17.7 14.8-17.7 2.3 0 3.8.3 3.8.3V15.8c-1-.3-1.9-.4-3.2-.4-6.7 0-11.7 3.3-15.4 9.7v-9h-14v45.2h.1zm-39.2-27.7a9.998 9.998 0 019.8-7.4c4.6 0 8.1 2.6 9.3 7.4h-19.1zm33.2 5c-.3-14-10-24-23.4-24-13.7 0-24 10.4-24 24 0 13 9.5 24 24 24 10.3 0 19.8-6.5 22.5-15.5h-13.5c-2 2.8-5 4.2-9 4.2-5 0-9-3.4-10-9h33.4v-3.7zm-98.3-11.3h19.4v17.4c0 11.6 6 18 17.7 18 5 0 9-1 12.5-2.7l-3.6-11a12.998 12.998 0 01-6 1.6c-4.5 0-6.7-2.6-6.7-7.4V27.3h13.7V16.1h-13.7V.4L140.7 5v11h-19.4V.6L107.4 5v39.7c0 11.6 6 18 17.7 18 5 0 9-1 12.5-2.7L134 49a12.998 12.998 0 01-6 1.6c-4.5 0-6.7-2.6-6.7-7.4V27.3zm-52.8 6.3a10 10 0 019.8-7.4c4.5 0 8.1 2.6 9.3 7.4H68.5zm33.1 5c-.2-14-9.8-24-23.3-24-13.7 0-24 10.4-24 24 0 13 9.5 24 23.9 24 10.4 0 19.8-6.5 22.6-15.5H87.3c-2 2.8-5 4.2-9.1 4.2-5 0-8.9-3.4-10-9h33.4v-3.7zM28.3 49.5H14V37.3h14.3c3.3 0 6.6 2.1 6.6 6.2 0 3.5-2.7 6-6.6 6zM14 13.6h12.5c4.6 0 6.6 3 6.6 6 0 4.3-3.4 6.3-6.6 6.3H14V13.6zM40.7 30S48 26.2 48 17c0-7.2-6.3-15.3-18.8-15.3H0v59.7h29.2c16 0 20.4-10 20.4-16.8 0-10.9-8.9-14.6-8.9-14.6z" fill="#fff"/></svg>
